X:1
T:Victory in My Soul
T:Victory in My Soul
T:Daniel Brink Towner
T:James Martin Gray, 1907
T:Public Domain Courtesy of the Cyber Hymnal™
T:Public Domain Courtesy of the Cyber Hymnal™
C:Daniel Brink Towner
Z:Public Domain
Z:Courtesy of the Cyber Hymnal™
%%score ( 1 2 ) ( 3 4 )
L:1/8
Q:1/4=110
M:4/4
K:G
V:1 treble 
V:2 treble 
V:3 bass 
V:4 bass 
V:1
 D2 | [GB]3 [GB] [E^A]2 [EA]2 | [DB]3 [DB] [DG]2 D2 | [CE]3 [DF] [EG]2 [EA]2 | [DB]6 [DB]2 | %5
w: 1.~The|bur- den of my|fear and sin On|Christ by faith I|roll; And|
w: 2.~I|know there is a|test for me, A|bat- tle to be|won; But|
w: 3.~On|bat- tle- fields of|long a- go, When|saints have drawn the|sword, Their|
w: 4.~While|lean- ing on His|arm a- lone I|can- not know de-|feat; The|
w: 5.~E’en|death it- self I|do not fear Since|Christ hath borne its|sting; His|
 [DA]3 [DA] [DB]2 [G^c]2 | [Fd]2 [FB]2 [FA]2 [GB]2 | [DF]3 [DF] [^CG]2 [CE]2 | D6 || %9
w: now I have His|peace with- in And|vic- tory in my|soul.|
w: God en- sures the|vic- to- ry Be-|fore it is be-|gun.|
w: strength did not o’er-|come the foe, But|trust- ing in the|Lord.|
w: glor- y shall be|all His own When|vic- tory is com-|plete.|
w: pre- sence through the|val- ley drear Will|help us then to|sing.|
"^Refrain" [B,D]2 | [DB]>[DB] [DB]2 [CA]2 [B,G]2 | [CF]6 z2 | [Fc]>[Fc] [Fc]2 [FA]2 [Fd]2 | %13
w: ||||
w: ||||
w: There’s|vic- to- ry in my|soul,|Vic- to- ry in my|
w: ||||
w: ||||
 [GB]6 [GB]2 | [Gd]3 [Gd] [Gc][GB][=FA][FG] | [Ec]6!f! [ce]2 | [Bd]>[Bd] [Bd]6!ff! | %17
w: ||||
w: ||||
w: soul; I|grasp the prom- is- es by|faith, There’s|vic- to- ry|
w: ||||
w: ||||
 ([Dd][_Ec][=EB])[FA] G2- | G6 z2 |] %19
w: ||
w: ||
w: in * * my soul.||
w: ||
w: ||
V:2
 D2 | x8 | x6 D2 | x8 | x8 | x8 | x8 | x8 | D6 || x2 | x8 | x8 | x8 | x8 | x8 | x8 | x8 | x4 G2- | %18
 G6 x2 |] %19
V:3
 [G,B,]2 | [G,D]3 [G,D] [G,^C]2 [G,C]2 | [G,D]3 [G,D] [G,B,]2 [B,,G,]2 | %3
 [C,G,]3 [C,G,] [C,G,]2 [C,G,]2 | [G,,G,]6 [G,,G,]2 | [D,F,]3 [D,F,] G,2 [E,A,]2 | %6
 [D,A,]2 [D,B,]2 [D,D]2 [G,D]2 | A,3 A, [A,,A,]2 [A,,G,]2 | [D,F,]6 || z2 | %10
 [G,D]4 [D,F,]2 [D,G,]2 | ([D,F,][E,G,][F,A,][G,B,] [A,C]2) z2 | [B,,-A,]4 D2 C2 | %13
 ([G,,G,][A,,A,][B,,B,][C,C] [D,D]2) [G,D]2 | [G,B,]3 [G,B,] [G,E][G,D][G,C][G,B,] | %15
 [C,G,C]6!f! z2 | z4 ([D,D]>[D,D] [D,D]2) | ([D,D][D,C][D,D])[D,C] [G,,B,]2- | [G,,B,]6 z2 |] %19
V:4
 x2 | x8 | x8 | x8 | x8 | x4 G,2 x2 | x8 | A,3 A, x4 | x6 || x2 | x8 | x8 | x4 B,,4 | x8 | x8 | %15
 x8 | x8 | x6 | x8 |] %19

